X: 3
T: The Peeler's Jacket
R: reel
M: 4/4
L: 1/8
K: Gmaj
|:G2BG DGBG|FGAB c2Bc|dggf d2 (3efg|fdcA dBcA|
G2BG DGBG|FGAB c2Bc|dggf d2 (3efg|fdcA BG G2:|
|:g3f d3e/f/|g3a bgaf|g3f d2 (3efg|fdcA dBcA|
g3f d3 e/f/|g3a bgaf|gbag fdeg|1 fdcA BG~G2:|2 fdcA dBcA||


Tune 1343	Setting 1343

